X:5
T:Jigg, A
M:6/4
L:1/4
Q:3/4=85
S:D.Wright, Extraordinary Collection, London 1713
Z:Pete Stewart, 2004 <www.hornpipemusic.co.uk>
K:GMin
F/4G/4A/ | B2FDB,D | E2DC2F | GFEDCB, |
EFGF2c/4d/4e/ | f2edBc/4d/4e/ | c3BB2 ||
b | a2bc'ab | g2ab2d | edce2f | gG2c2f |
g2abgc' | a>gfbfg | f>edcdB | c3BB2 |]

